X:1
T: Once a Night
N:
C:aka "Ye Social Powers"
S:Play  3  times
A:
O:
R:
M:6/8
K:D
I:speed 150
%W: A1
% voice 1 (1 lines, 31 notes)
K:D
M:6/8
L:1/16
A4 A2 A4 G2 F4 G2 A6 B2 c2 d2 d2 c2 B2 B6 A6 |A4 A2 A4 G2 F4 G2 A4 A2 A2 B2 G2 F2 G2 E2 D6 D6 |
%W: A2
% voice 1 (1 lines, 31 notes)
A4 A2 A4 G2 F4 G2 A6 B2 c2 d2 d2 c2 B2 B6 A6 |A4 A2 A4 G2 F4 G2 A4 A2 A2 B2 G2 F2 G2 E2 D6 D6 |
%W: B1
% voice 1 (1 lines, 31 notes)
c4 d2 e4 A2 c4 d2 e2 f2 g2 f4 d2 d4 d2 c4 B2 A6 |d4 d2 c4 B2 c4 d2 e4 e2 f4 d2 c2 B2 c2 d6 d6 |
%W: B2
% voice 1 (1 lines, 31 notes)
c4 d2 e4 A2 c4 d2 e2 f2 g2 f4 d2 d4 d2 c4 B2 A6 |d4 d2 c4 B2 c4 d2 e4 e2 f4 d2 c2 B2 c2 d6 d6 |
%W: C1
% voice 1 (1 lines, 31 notes)
A4 A2 A4 G2 F4 G2 A6 B2 c2 d2 d2 c2 B2 B6 A6 |A4 A2 A4 G2 F4 G2 A4 A2 A2 B2 G2 F2 G2 E2 D6 D6 |
%W: C2
% voice 1 (1 lines, 31 notes)
A4 A2 A4 G2 F4 G2 A6 B2 c2 d2 d2 c2 B2 B6 A6 |A4 A2 A4 G2 F4 G2 A4 A2 A2 B2 G2 F2 G2 E2 D6 D6 ||
